teeny/solid/battery-0.svg

<svg width="15" height="15" viewBox="0 0 15 15" fill="none" xmlns="http://www.w3.org/2000/svg">
<path d="M1.5 13C0.671573 13 0 12.3284 0 11.5V3.5C0 2.67157 0.671572 2 1.5 2H11.5C12.3284 2 13 2.67157 13 3.5V11.5C13 12.3284 12.3284 13 11.5 13L1.5 13Z" fill="black"/>
<path d="M15 10V5H14V10H15Z" fill="black"/>
</svg>

<svg viewBox="0 0 15 15" xmlns="http://www.w3.org/2000/svg"><g><path d="M1.5 13C.67 13 0 12.32 0 11.5v-8C0 2.67.67 2 1.5 2h10c.82 0 1.5.67 1.5 1.5v8c0 .82-.68 1.5-1.5 1.5h-10Z"/><path d="M15 10V5h-1v5h1Z"/></g></svg>
